;FLAVOR:RepRap
;TIME:7908
;Filament used: 8.15809m
;Layer height: 0.2
;MINX:25.2
;MINY:22.787
;MINZ:0.3
;MAXX:124.8
;MAXY:126.977
;MAXZ:38.7
;Generated with Cura_SteamEngine 4.8.0
T0
M104 S210
M109 S210
M82 ;absolute extrusion mode
G28 ;Home
G1 Z15.0 F6000 ;Move the platform down 15mm
;Prime the extruder
G92 E0
G1 F200 E3
G92 E0
M83 ;relative extrusion mode
G1 F1500 E-6.5
;LAYER_COUNT:193
;LAYER:0
M107
G0 F3000 X43.179 Y26.921 Z0.3
;TYPE:SKIRT
G1 F1500 E6.5
G1 F1800 X43.597 Y26.25 E0.03944
G1 X44.08 Y25.626 E0.03937
G1 X44.485 Y25.189 E0.02973
G1 X44.602 Y25.072 E0.00825
G1 X45.188 Y24.542 E0.03942
G1 X45.824 Y24.075 E0.03937
G1 X46.504 Y23.674 E0.03938
G1 X47.222 Y23.344 E0.03942
G1 X47.969 Y23.089 E0.03938
G1 X48.738 Y22.91 E0.03939
G1 X49.522 Y22.81 E0.03943
G1 X50.117 Y22.787 E0.02971
G1 X55.883 Y22.787 E0.28767
G1 X56.672 Y22.827 E0.03941
G1 X57.452 Y22.946 E0.03936
G1 X58.217 Y23.144 E0.03942
G1 X58.957 Y23.418 E0.03937
G1 X59.666 Y23.766 E0.0394
G1 X60.337 Y24.184 E0.03944
G1 X60.961 Y24.667 E0.03937
G1 X61.398 Y25.072 E0.02973
G1 X61.515 Y25.189 E0.00825
G1 X62.045 Y25.775 E0.03942
G1 X62.512 Y26.411 E0.03937
G1 X62.913 Y27.091 E0.03938
G1 X63.243 Y27.809 E0.03942
G1 X63.498 Y28.556 E0.03938
G1 X63.677 Y29.325 E0.03939
G1 X63.777 Y30.109 E0.03943
G1 X63.8 Y30.704 E0.02971
G1 X63.8 Y32.47 E0.08811
G1 X63.76 Y33.259 E0.03941
G1 X63.641 Y34.039 E0.03936
G1 X63.443 Y34.804 E0.03942
G1 X63.169 Y35.544 E0.03937
G1 X62.821 Y36.253 E0.0394
G1 X62.403 Y36.924 E0.03944
G1 X61.92 Y37.548 E0.03937
G1 X61.515 Y37.985 E0.02973
G1 X61.398 Y38.102 E0.00825
G1 X60.812 Y38.632 E0.03942
G1 X60.176 Y39.099 E0.03937
G1 X59.8 Y39.321 E0.02178
G1 X59.8 Y39.787 E0.02325
G1 X90.2 Y39.787 E1.51666
G1 X90.2 Y39.325 E0.02305
G1 X89.663 Y38.99 E0.03158
G1 X89.039 Y38.507 E0.03937
G1 X88.602 Y38.102 E0.02973
G1 X88.485 Y37.985 E0.00825
G1 X87.955 Y37.399 E0.03942
G1 X87.488 Y36.763 E0.03937
G1 X87.087 Y36.083 E0.03938
G1 X86.757 Y35.365 E0.03942
G1 X86.502 Y34.618 E0.03938
G1 X86.323 Y33.849 E0.03939
G1 X86.223 Y33.065 E0.03943
G1 X86.2 Y32.47 E0.02971
G1 X86.2 Y30.704 E0.08811
G1 X86.24 Y29.915 E0.03941
G1 X86.359 Y29.135 E0.03936
G1 X86.557 Y28.37 E0.03942
G1 X86.831 Y27.63 E0.03937
G1 X87.179 Y26.921 E0.0394
G1 X87.597 Y26.25 E0.03944
G1 X88.08 Y25.626 E0.03937
G1 X88.485 Y25.189 E0.02973
G1 X88.602 Y25.072 E0.00825
G1 X89.188 Y24.542 E0.03942
G1 X89.824 Y24.075 E0.03937
G1 X90.504 Y23.674 E0.03938
G1 X91.222 Y23.344 E0.03942
G1 X91.969 Y23.089 E0.03938
G1 X92.738 Y22.91 E0.03939
G1 X93.522 Y22.81 E0.03943
G1 X94.117 Y22.787 E0.02971
G1 X99.883 Y22.787 E0.28767
G1 X100.672 Y22.827 E0.03941
G1 X101.452 Y22.946 E0.03936
G1 X102.217 Y23.144 E0.03942
G1 X102.957 Y23.418 E0.03937
G1 X103.666 Y23.766 E0.0394
G1 X104.337 Y24.184 E0.03944
G1 X104.961 Y24.667 E0.03937
G1 X105.398 Y25.072 E0.02973
G1 X105.515 Y25.189 E0.00825
G1 X106.045 Y25.775 E0.03942
G1 X106.512 Y26.411 E0.03937
G1 X106.913 Y27.091 E0.03938
G1 X107.243 Y27.809 E0.03942
G1 X107.498 Y28.556 E0.03938
G1 X107.677 Y29.325 E0.03939
G1 X107.777 Y30.109 E0.03943
G1 X107.8 Y30.704 E0.02971
G1 X107.8 Y93.825 E3.14912
G1 X107.999 Y93.82 E0.00993
G1 X114.977 Y93.819 E0.34813
G1 X115.766 Y93.859 E0.03941
G1 X116.43 Y93.942 E0.03338
G1 X117.211 Y94.064 E0.03944
G1 X117.974 Y94.265 E0.03936
G1 X118.714 Y94.541 E0.0394
G1 X119.422 Y94.892 E0.03942
G1 X120.091 Y95.312 E0.03941
G1 X120.714 Y95.797 E0.03939
G1 X121.284 Y96.343 E0.03938
G1 X121.797 Y96.944 E0.03942
G1 X122.246 Y97.593 E0.03937
G1 X122.627 Y98.285 E0.03941
G1 X122.839 Y98.759 E0.02591
G1 X122.981 Y99.108 E0.0188
G1 X123.241 Y99.854 E0.03941
G1 X123.425 Y100.622 E0.0394
G1 X123.529 Y101.405 E0.03941
G1 X123.555 Y102.194 E0.03938
G1 X123.5 Y102.982 E0.03941
G1 X123.366 Y103.76 E0.03939
G1 X123.204 Y104.341 E0.03009
G1 X123.624 Y104.946 E0.03674
G1 X124.007 Y105.637 E0.03942
G1 X124.317 Y106.363 E0.03938
G1 X124.553 Y107.117 E0.03942
G1 X124.711 Y107.89 E0.03936
G1 X124.8 Y109.064 E0.05874
G1 X124.8 Y119.059 E0.49865
G1 X124.76 Y119.848 E0.03941
G1 X124.641 Y120.628 E0.03936
G1 X124.443 Y121.393 E0.03942
G1 X124.169 Y122.133 E0.03937
G1 X123.821 Y122.842 E0.0394
G1 X123.403 Y123.513 E0.03944
G1 X122.92 Y124.137 E0.03937
G1 X122.515 Y124.574 E0.02973
G1 X122.398 Y124.691 E0.00825
G1 X121.812 Y125.221 E0.03942
G1 X121.176 Y125.688 E0.03937
G1 X120.496 Y126.089 E0.03938
G1 X119.778 Y126.419 E0.03942
G1 X119.031 Y126.674 E0.03938
G1 X118.262 Y126.853 E0.03939
G1 X117.478 Y126.953 E0.03943
G1 X116.883 Y126.976 E0.02971
G1 X33.117 Y126.977 E4.1791
G1 X32.328 Y126.937 E0.03941
G1 X31.548 Y126.818 E0.03936
G1 X30.783 Y126.62 E0.03942
G1 X30.043 Y126.346 E0.03937
G1 X29.334 Y125.998 E0.0394
G1 X28.663 Y125.581 E0.03941
G1 X28.039 Y125.097 E0.0394
G1 X27.602 Y124.692 E0.02973
G1 X27.485 Y124.575 E0.00825
G1 X26.955 Y123.989 E0.03942
G1 X26.488 Y123.353 E0.03937
G1 X26.087 Y122.673 E0.03938
G1 X25.757 Y121.955 E0.03942
G1 X25.502 Y121.208 E0.03938
G1 X25.323 Y120.439 E0.03939
G1 X25.223 Y119.655 E0.03943
G1 X25.2 Y119.06 E0.02971
G1 X25.2 Y109.065 E0.49865
G1 X25.24 Y108.276 E0.03941
G1 X25.359 Y107.496 E0.03936
G1 X25.557 Y106.731 E0.03942
G1 X25.831 Y105.991 E0.03937
G1 X26.179 Y105.282 E0.0394
G1 X26.597 Y104.611 E0.03944
G1 X26.801 Y104.348 E0.01661
G1 X26.767 Y104.252 E0.00508
G1 X26.582 Y103.484 E0.03941
G1 X26.476 Y102.702 E0.03937
G1 X26.45 Y101.913 E0.03938
G1 X26.504 Y101.125 E0.03941
G1 X26.637 Y100.346 E0.03943
G1 X26.848 Y99.585 E0.0394
G1 X27.048 Y99.049 E0.02854
G1 X27.195 Y98.696 E0.01908
G1 X27.535 Y97.984 E0.03936
G1 X27.946 Y97.309 E0.03943
G1 X28.422 Y96.679 E0.03939
G1 X28.96 Y96.101 E0.0394
G1 X29.554 Y95.58 E0.03942
G1 X30.197 Y95.122 E0.03939
G1 X30.883 Y94.731 E0.03939
G1 X31.605 Y94.411 E0.0394
G1 X32.356 Y94.167 E0.0394
G1 X33.127 Y93.999 E0.03937
G1 X33.586 Y93.943 E0.02307
G1 X34.37 Y93.843 E0.03943
G1 X34.964 Y93.82 E0.02966
G1 X41.999 Y93.819 E0.35098
G1 X42.2 Y93.829 E0.01004
G1 X42.2 Y30.704 E3.14932
G1 X42.24 Y29.915 E0.03941
G1 X42.359 Y29.135 E0.03936
G1 X42.557 Y28.37 E0.03942
G1 X42.831 Y27.63 E0.03937
G1 X43.179 Y26.921 E0.0394
G0 F3000 X43.578 Y27.028
G1 F1800 X43.994 Y26.381 E0.03838
G1 X44.475 Y25.781 E0.03837
G1 X44.884 Y25.354 E0.0295
G1 X45.456 Y24.84 E0.03837
G1 X46.078 Y24.387 E0.03839
G1 X46.743 Y24.001 E0.03836
G1 X47.445 Y23.686 E0.03839
G1 X48.176 Y23.446 E0.03839
G1 X48.927 Y23.283 E0.03834
G1 X49.692 Y23.199 E0.0384
G1 X50.117 Y23.187 E0.02121
G1 X55.883 Y23.187 E0.28767
G1 X56.651 Y23.227 E0.03837
G1 X57.411 Y23.346 E0.03838
G1 X58.154 Y23.544 E0.03836
G1 X58.873 Y23.818 E0.03839
G1 X59.559 Y24.165 E0.03835
G1 X60.206 Y24.581 E0.03838
G1 X60.806 Y25.062 E0.03837
G1 X61.233 Y25.471 E0.0295
G1 X61.747 Y26.043 E0.03837
G1 X62.2 Y26.665 E0.03839
G1 X62.586 Y27.33 E0.03836
G1 X62.901 Y28.032 E0.03839
G1 X63.141 Y28.763 E0.03839
G1 X63.304 Y29.514 E0.03834
G1 X63.388 Y30.279 E0.0384
G1 X63.4 Y30.704 E0.02121
G1 X63.4 Y32.47 E0.08811
G1 X63.36 Y33.238 E0.03837
G1 X63.241 Y33.998 E0.03838
G1 X63.043 Y34.741 E0.03836
G1 X62.769 Y35.46 E0.03839
G1 X62.422 Y36.146 E0.03835
G1 X62.006 Y36.793 E0.03838
G1 X61.525 Y37.393 E0.03837
G1 X61.116 Y37.82 E0.0295
G1 X60.544 Y38.334 E0.03837
G1 X59.922 Y38.787 E0.03839
G1 X59.4 Y39.09 E0.03011
G1 X59.4 Y40.187 E0.05473
G1 X90.6 Y40.187 E1.55657
G1 X90.6 Y39.089 E0.05478
G1 X90.441 Y39.009 E0.00888
G1 X89.794 Y38.593 E0.03838
G1 X89.194 Y38.112 E0.03837
G1 X88.767 Y37.703 E0.0295
G1 X88.253 Y37.131 E0.03837
G1 X87.8 Y36.509 E0.03839
G1 X87.414 Y35.844 E0.03836
G1 X87.099 Y35.142 E0.03839
G1 X86.859 Y34.411 E0.03839
G1 X86.696 Y33.66 E0.03834
G1 X86.612 Y32.895 E0.0384
G1 X86.6 Y32.47 E0.02121
G1 X86.6 Y30.704 E0.08811
G1 X86.64 Y29.936 E0.03837
G1 X86.759 Y29.176 E0.03838
G1 X86.957 Y28.433 E0.03836
G1 X87.231 Y27.714 E0.03839
G1 X87.578 Y27.028 E0.03835
G1 X87.994 Y26.381 E0.03838
G1 X88.475 Y25.781 E0.03837
G1 X88.884 Y25.354 E0.0295
G1 X89.456 Y24.84 E0.03837
G1 X90.078 Y24.387 E0.03839
G1 X90.743 Y24.001 E0.03836
G1 X91.445 Y23.686 E0.03839
G1 X92.176 Y23.446 E0.03839
G1 X92.927 Y23.283 E0.03834
G1 X93.692 Y23.199 E0.0384
G1 X94.117 Y23.187 E0.02121
G1 X99.883 Y23.187 E0.28767
G1 X100.651 Y23.227 E0.03837
G1 X101.411 Y23.346 E0.03838
G1 X102.154 Y23.544 E0.03836
G1 X102.873 Y23.818 E0.03839
G1 X103.559 Y24.165 E0.03835
G1 X104.206 Y24.581 E0.03838
G1 X104.806 Y25.062 E0.03837
G1 X105.233 Y25.471 E0.0295
G1 X105.747 Y26.043 E0.03837
G1 X106.2 Y26.665 E0.03839
G1 X106.586 Y27.33 E0.03836
G1 X106.901 Y28.032 E0.03839
G1 X107.141 Y28.763 E0.03839
G1 X107.304 Y29.514 E0.03834
G1 X107.388 Y30.279 E0.0384
G1 X107.4 Y30.704 E0.02121
G1 X107.4 Y94.255 E3.17057
G1 X107.999 Y94.22 E0.02994
G1 X114.977 Y94.219 E0.34813
G1 X115.745 Y94.259 E0.03837
G1 X116.408 Y94.342 E0.03334
G1 X117.168 Y94.464 E0.0384
G1 X117.91 Y94.664 E0.03834
G1 X118.628 Y94.941 E0.03839
G1 X119.313 Y95.29 E0.03835
G1 X119.959 Y95.709 E0.03841
G1 X120.557 Y96.192 E0.03835
G1 X121.102 Y96.735 E0.03838
G1 X121.588 Y97.331 E0.03837
G1 X122.009 Y97.975 E0.03839
G1 X122.468 Y98.91 E0.05197
G1 X122.61 Y99.259 E0.0188
G1 X122.863 Y99.986 E0.0384
G1 X123.038 Y100.734 E0.03833
G1 X123.135 Y101.498 E0.03842
G1 X123.153 Y102.266 E0.03833
G1 X123.09 Y103.033 E0.03839
G1 X122.948 Y103.789 E0.03838
G1 X122.757 Y104.431 E0.03342
G1 X123.047 Y104.799 E0.02338
G1 X123.457 Y105.45 E0.03838
G1 X123.798 Y106.14 E0.0384
G1 X124.065 Y106.861 E0.03836
G1 X124.255 Y107.606 E0.03836
G1 X124.367 Y108.367 E0.03838
G1 X124.4 Y109.064 E0.03481
G1 X124.4 Y119.059 E0.49865
G1 X124.36 Y119.827 E0.03837
G1 X124.241 Y120.587 E0.03838
G1 X124.043 Y121.33 E0.03836
G1 X123.769 Y122.049 E0.03839
G1 X123.422 Y122.735 E0.03835
G1 X123.006 Y123.382 E0.03838
G1 X122.525 Y123.982 E0.03837
G1 X122.116 Y124.409 E0.0295
G1 X121.544 Y124.923 E0.03837
G1 X120.922 Y125.376 E0.03839
G1 X120.257 Y125.762 E0.03836
G1 X119.555 Y126.077 E0.03839
G1 X118.824 Y126.317 E0.03839
G1 X118.073 Y126.48 E0.03834
G1 X117.308 Y126.564 E0.0384
G1 X116.883 Y126.576 E0.02121
G1 X33.117 Y126.577 E4.1791
G1 X32.349 Y126.537 E0.03837
G1 X31.589 Y126.418 E0.03838
G1 X30.846 Y126.22 E0.03836
G1 X30.127 Y125.946 E0.03839
G1 X29.441 Y125.599 E0.03835
G1 X28.794 Y125.183 E0.03838
G1 X28.194 Y124.702 E0.03837
G1 X27.767 Y124.293 E0.0295
G1 X27.253 Y123.721 E0.03837
G1 X26.8 Y123.099 E0.03839
G1 X26.414 Y122.434 E0.03836
G1 X26.099 Y121.732 E0.03839
G1 X25.859 Y121.001 E0.03839
G1 X25.696 Y120.25 E0.03834
G1 X25.612 Y119.485 E0.0384
G1 X25.6 Y119.06 E0.02121
G1 X25.6 Y109.065 E0.49865
G1 X25.64 Y108.297 E0.03837
G1 X25.759 Y107.537 E0.03838
G1 X25.957 Y106.794 E0.03836
G1 X26.231 Y106.075 E0.03839
G1 X26.578 Y105.389 E0.03835
G1 X26.994 Y104.742 E0.03838
G1 X27.251 Y104.422 E0.02048
G1 X27.123 Y104.043 E0.01996
G1 X26.954 Y103.293 E0.03836
G1 X26.865 Y102.529 E0.03837
G1 X26.855 Y101.76 E0.03837
G1 X26.924 Y100.994 E0.03837
G1 X27.073 Y100.239 E0.03839
G1 X27.418 Y99.203 E0.05448
G1 X27.565 Y98.85 E0.01908
G1 X27.897 Y98.156 E0.03838
G1 X28.299 Y97.501 E0.03834
G1 X28.768 Y96.891 E0.03839
G1 X29.297 Y96.333 E0.03836
G1 X29.881 Y95.832 E0.03839
G1 X30.514 Y95.395 E0.03838
G1 X31.189 Y95.026 E0.03838
G1 X31.898 Y94.729 E0.03835
G1 X32.635 Y94.508 E0.03839
G1 X33.39 Y94.364 E0.03835
G1 X33.775 Y94.316 E0.01936
G1 X34.54 Y94.232 E0.0384
G1 X34.964 Y94.22 E0.02116
G1 X41.999 Y94.219 E0.35098
G1 X42.6 Y94.25 E0.03002
G1 X42.6 Y30.704 E3.17032
G1 X42.64 Y29.936 E0.03837
G1 X42.759 Y29.176 E0.03838
G1 X42.957 Y28.433 E0.03836
G1 X43.231 Y27.714 E0.03839
G1 X43.578 Y27.028 E0.03835
G0 F3000 X43.977 Y27.138
G1 F1800 X44.392 Y26.515 E0.03735
G1 X45.05 Y25.754 E0.05019
G1 X45.167 Y25.637 E0.00825
G1 X45.724 Y25.137 E0.03734
G1 X46.33 Y24.7 E0.03727
G1 X46.98 Y24.329 E0.03734
G1 X47.666 Y24.03 E0.03733
G1 X48.38 Y23.806 E0.03733
G1 X49.113 Y23.659 E0.0373
G1 X50.117 Y23.587 E0.05022
G1 X55.883 Y23.587 E0.28767
G1 X56.63 Y23.627 E0.03732
G1 X57.368 Y23.746 E0.03729
G1 X58.09 Y23.944 E0.03735
G1 X58.786 Y24.217 E0.0373
G1 X59.449 Y24.564 E0.03733
G1 X60.072 Y24.979 E0.03735
G1 X60.833 Y25.637 E0.05019
G1 X60.95 Y25.754 E0.00825
G1 X61.45 Y26.311 E0.03734
G1 X61.887 Y26.917 E0.03727
G1 X62.258 Y27.567 E0.03734
G1 X62.557 Y28.253 E0.03733
G1 X62.781 Y28.967 E0.03733
G1 X62.928 Y29.7 E0.0373
G1 X63 Y30.704 E0.05022
G1 X63 Y32.47 E0.08811
G1 X62.96 Y33.217 E0.03732
G1 X62.841 Y33.955 E0.03729
G1 X62.643 Y34.677 E0.03735
G1 X62.37 Y35.373 E0.0373
G1 X62.023 Y36.036 E0.03733
G1 X61.608 Y36.659 E0.03735
G1 X60.95 Y37.42 E0.05019
G1 X60.833 Y37.537 E0.00825
G1 X60.276 Y38.037 E0.03734
G1 X59.67 Y38.474 E0.03727
G1 X59.02 Y38.845 E0.03734
G1 X59 Y38.854 E0.00109
G1 X59 Y40.587 E0.08646
G1 X91 Y40.587 E1.59649
G1 X91 Y38.845 E0.08691
G1 X90.551 Y38.61 E0.02528
G1 X89.928 Y38.195 E0.03735
G1 X89.167 Y37.537 E0.05019
G1 X89.05 Y37.42 E0.00825
G1 X88.55 Y36.863 E0.03734
G1 X88.113 Y36.257 E0.03727
G1 X87.742 Y35.607 E0.03734
G1 X87.443 Y34.921 E0.03733
G1 X87.219 Y34.207 E0.03733
G1 X87.072 Y33.474 E0.0373
G1 X87 Y32.47 E0.05022
G1 X87 Y30.704 E0.08811
G1 X87.04 Y29.957 E0.03732
G1 X87.159 Y29.219 E0.03729
G1 X87.357 Y28.497 E0.03735
G1 X87.63 Y27.801 E0.0373
G1 X87.977 Y27.138 E0.03733
G1 X88.392 Y26.515 E0.03735
G1 X89.05 Y25.754 E0.05019
G1 X89.167 Y25.637 E0.00825
G1 X89.724 Y25.137 E0.03734
G1 X90.33 Y24.7 E0.03727
G1 X90.98 Y24.329 E0.03734
G1 X91.666 Y24.03 E0.03733
G1 X92.38 Y23.806 E0.03733
G1 X93.113 Y23.659 E0.0373
G1 X94.117 Y23.587 E0.05022
G1 X99.883 Y23.587 E0.28767
G1 X100.63 Y23.627 E0.03732
G1 X101.368 Y23.746 E0.03729
G1 X102.09 Y23.944 E0.03735
G1 X102.786 Y24.217 E0.0373
G1 X103.449 Y24.564 E0.03733
G1 X104.072 Y24.979 E0.03735
G1 X104.833 Y25.637 E0.05019
G1 X104.95 Y25.754 E0.00825
G1 X105.45 Y26.311 E0.03734
G1 X105.887 Y26.917 E0.03727
G1 X106.258 Y27.567 E0.03734
G1 X106.557 Y28.253 E0.03733
G1 X106.781 Y28.967 E0.03733
G1 X106.928 Y29.7 E0.0373
G1 X107 Y30.704 E0.05022
G1 X107 Y94.701 E3.19282
G1 X107.483 Y94.639 E0.02429
G1 X107.999 Y94.62 E0.02576
G1 X114.977 Y94.619 E0.34813
G1 X115.724 Y94.659 E0.03732
G1 X116.386 Y94.742 E0.03329
G1 X117.124 Y94.864 E0.03732
G1 X117.845 Y95.064 E0.03733
G1 X118.54 Y95.34 E0.03731
G1 X119.202 Y95.688 E0.03731
G1 X119.823 Y96.106 E0.03735
G1 X120.396 Y96.587 E0.03732
G1 X120.914 Y97.126 E0.0373
G1 X121.372 Y97.718 E0.03734
G1 X121.764 Y98.355 E0.03732
G1 X122.098 Y99.061 E0.03897
G1 X122.24 Y99.41 E0.0188
G1 X122.484 Y100.117 E0.03731
G1 X122.652 Y100.846 E0.03732
G1 X122.741 Y101.589 E0.03733
G1 X122.75 Y102.337 E0.03732
G1 X122.679 Y103.081 E0.03729
G1 X122.529 Y103.814 E0.03733
G1 X122.307 Y104.512 E0.03654
G1 X122.468 Y104.694 E0.01212
G1 X122.903 Y105.302 E0.0373
G1 X123.271 Y105.954 E0.03735
G1 X123.567 Y106.641 E0.03732
G1 X123.788 Y107.355 E0.03729
G1 X123.932 Y108.089 E0.03732
G1 X124 Y109.064 E0.04876
G1 X124 Y119.059 E0.49865
G1 X123.96 Y119.806 E0.03732
G1 X123.841 Y120.544 E0.03729
G1 X123.643 Y121.266 E0.03735
G1 X123.37 Y121.962 E0.0373
G1 X123.023 Y122.625 E0.03733
G1 X122.608 Y123.248 E0.03735
G1 X121.95 Y124.009 E0.05019
G1 X121.833 Y124.126 E0.00825
G1 X121.276 Y124.626 E0.03734
G1 X120.67 Y125.063 E0.03727
G1 X120.02 Y125.434 E0.03734
G1 X119.334 Y125.733 E0.03733
G1 X118.62 Y125.957 E0.03733
G1 X117.887 Y126.104 E0.0373
G1 X116.883 Y126.176 E0.05022
G1 X33.117 Y126.177 E4.1791
G1 X32.37 Y126.137 E0.03732
G1 X31.632 Y126.018 E0.03729
G1 X30.91 Y125.82 E0.03735
G1 X30.214 Y125.547 E0.0373
G1 X29.551 Y125.2 E0.03733
G1 X28.928 Y124.785 E0.03735
G1 X28.167 Y124.127 E0.05019
G1 X28.05 Y124.01 E0.00825
G1 X27.55 Y123.453 E0.03734
G1 X27.113 Y122.847 E0.03727
G1 X26.742 Y122.197 E0.03734
G1 X26.443 Y121.511 E0.03733
G1 X26.219 Y120.797 E0.03733
G1 X26.072 Y120.064 E0.0373
G1 X26 Y119.06 E0.05022
G1 X26 Y109.065 E0.49865
G1 X26.04 Y108.318 E0.03732
G1 X26.159 Y107.58 E0.03729
G1 X26.357 Y106.858 E0.03735
G1 X26.63 Y106.162 E0.0373
G1 X26.977 Y105.499 E0.03733
G1 X27.392 Y104.876 E0.03735
G1 X27.698 Y104.509 E0.02384
G1 X27.481 Y103.836 E0.03528
G1 X27.329 Y103.104 E0.0373
G1 X27.256 Y102.359 E0.03735
G1 X27.263 Y101.611 E0.03732
G1 X27.349 Y100.868 E0.03732
G1 X27.514 Y100.139 E0.03729
